src/assets/images/icon2.svg

<svg width="70" height="70" viewBox="0 0 70 70" fill="none" xmlns="http://www.w3.org/2000/svg">
<path d="M25.9001 11.003C30.6229 5.29249 39.3771 5.29249 44.0999 11.003C45.9062 13.1869 48.4376 14.6484 51.2321 15.1207C58.5389 16.3555 62.916 23.9369 60.332 30.8822C59.3438 33.5385 59.3438 36.4615 60.332 39.1177C62.916 46.0631 58.5389 53.6445 51.2321 54.8793C48.4376 55.3516 45.9062 56.8131 44.0999 58.997C39.3771 64.7075 30.6229 64.7075 25.9001 58.997C24.0938 56.8131 21.5624 55.3516 18.7679 54.8793C11.4611 53.6445 7.08398 46.0631 9.66799 39.1177C10.6562 36.4615 10.6562 33.5385 9.66799 30.8822C7.08398 23.9369 11.4611 16.3555 18.7679 15.1207C21.5624 14.6484 24.0938 13.1869 25.9001 11.003Z" fill="url(#paint0_linear_1_1016)"/>
<path d="M34 25V27" stroke="white" stroke-width="2" stroke-linecap="round" stroke-linejoin="round"/>
<path d="M28 25V27" stroke="white" stroke-width="2" stroke-linecap="round" stroke-linejoin="round"/>
<path d="M28 26H27C26.4696 26 25.9609 26.2107 25.5858 26.5858C25.2107 26.9609 25 27.4696 25 28V32C25 33.5913 25.6321 35.1174 26.7574 36.2426C27.8826 37.3679 29.4087 38 31 38C32.5913 38 34.1174 37.3679 35.2426 36.2426C36.3679 35.1174 37 33.5913 37 32V28C37 27.4696 36.7893 26.9609 36.4142 26.5858C36.0391 26.2107 35.5304 26 35 26H34" stroke="white" stroke-width="2" stroke-linecap="round" stroke-linejoin="round"/>
<path d="M31 38C31 39.5913 31.6321 41.1174 32.7574 42.2426C33.8826 43.3679 35.4087 44 37 44C38.5913 44 40.1174 43.3679 41.2426 42.2426C42.3679 41.1174 43 39.5913 43 38V35" stroke="white" stroke-width="2" stroke-linecap="round" stroke-linejoin="round"/>
<path d="M43 35C44.1046 35 45 34.1046 45 33C45 31.8954 44.1046 31 43 31C41.8954 31 41 31.8954 41 33C41 34.1046 41.8954 35 43 35Z" stroke="white" stroke-width="2" stroke-linecap="round" stroke-linejoin="round"/>
<defs>
<linearGradient id="paint0_linear_1_1016" x1="49" y1="11.5" x2="13.5" y2="60" gradientUnits="userSpaceOnUse">
<stop stop-color="#87C752"/>
<stop offset="1" stop-color="#4AB8D2"/>
</linearGradient>
</defs>
</svg>

<svg xmlns="http://www.w3.org/2000/svg" width="70" height="70" fill="none" viewBox="0 0 70 70"><path fill="url(#a)" d="M25.9 11.003c4.723-5.71 13.477-5.71 18.2 0a11.8 11.8 0 0 0 7.132 4.118c7.307 1.234 11.684 8.816 9.1 15.761a11.8 11.8 0 0 0 0 8.236c2.584 6.945-1.793 14.526-9.1 15.761a11.8 11.8 0 0 0-7.132 4.118c-4.723 5.71-13.477 5.71-18.2 0a11.8 11.8 0 0 0-7.132-4.118c-7.307-1.234-11.684-8.816-9.1-15.761a11.8 11.8 0 0 0 0-8.236c-2.584-6.945 1.793-14.527 9.1-15.761a11.8 11.8 0 0 0 7.132-4.118"/><path stroke="#fff" stroke-linecap="round" stroke-linejoin="round" stroke-width="2" d="M34 25v2m-6-2v2m0-1h-1a2 2 0 0 0-2 2v4a6 6 0 1 0 12 0v-4a2 2 0 0 0-2-2h-1"/><path stroke="#fff" stroke-linecap="round" stroke-linejoin="round" stroke-width="2" d="M31 38a6 6 0 1 0 12 0v-3m0 0a2 2 0 1 0 0-4 2 2 0 0 0 0 4"/><defs><linearGradient id="a" x1="49" x2="13.5" y1="11.5" y2="60" gradientUnits="userSpaceOnUse"><stop stop-color="#87c752"/><stop offset="1" stop-color="#4ab8d2"/></linearGradient></defs></svg>
